svgs/1F92B.svg

<svg xmlns="http://www.w3.org/2000/svg" version="1.1" xmlns:xlink="http://www.w3.org/1999/xlink" preserveAspectRatio="none" x="0px" y="0px" width="72px" height="72px" viewBox="0 0 72 72">
<defs>
<g id="Layer2_0_MEMBER_0_MEMBER_0_MEMBER_0_MEMBER_0_MEMBER_0_MEMBER_0_MEMBER_0_MEMBER_0_FILL">
<path fill="#FCC21B" stroke="none" d="
M 36 5.6
Q 13.8 5.6 5.05 26.1 0.25 37.35 0.25 52.45 0.25 58.25 10.7 62.35 21.2 66.45 36 66.45 50.8 66.45 61.25 62.35 71.7 58.25 71.7 52.45 71.7 37.35 66.9 26.1 58.2 5.6 36 5.6 Z"/>
</g>

<g id="Layer1_0_FILL">
<path fill="#2F2F2F" stroke="none" d="
M 26.65 20.7
Q 25.2 19 23.15 19.05 21.15 19.1 19.75 20.8 18.3 22.6 18.35 25 18.39296875 27.0634765625 19.45 28.55 19.5857421875 28.7322265625 19.7 28.85 23.440625 28.604296875 27.15 28.45 27.278125 28.3060546875 27.35 28.15 28.188671875 26.703125 28.15 24.85 28.1 22.35 26.65 20.7
M 52.4 20.7
Q 50.95 19 48.9 19.05 46.85 19.05 45.5 20.85 44.05 22.55 44.1 24.95 44.1361328125 26.716015625 44.9 28.1 44.9875 28.2556640625 45.05 28.4 48.8626953125 28.5517578125 52.6 28.8 52.7173828125 28.6775390625 52.8 28.5 53.9 26.9490234375 53.9 24.85 53.85 22.4 52.4 20.7 Z"/>
</g>

<g id="Layer0_0_FILL">
<path fill="#FCC21B" stroke="none" d="
M 47.8 44.75
Q 48.35 45.3 48.55 45.95 48.95 47.4 48.35 48.1 48 48.5 47.45 48.75 48.9 48.95 49.45 50.15 49.798828125 50.7970703125 49.95 51.35 50.0474609375 51.7462890625 50.05 52.3 50.101171875 52.66875 50.1 53.05 50.0998046875 53.145703125 50.05 53.2
L 49.75 56
Q 49.7712890625 56.0673828125 49.75 56.1 54.0396484375 51.091796875 52.3 48 50.611328125 44.8994140625 47.8 44.75
M 47.8 44.75
Q 47 44 45.5 43.5 42.75 42.55 37.05 44.55 34.15 45.3 31.9 46.6 34.15 45.3 37.05 44.55 38.45 42.25 39 40.15 39.75 38.1 39.75 36.25 39.8326171875 34.5958984375 39.6 33.5 39.2625 30.1640625 36.65 29.85 34.0482421875 29.799609375 32.7 33.5
L 32.65 33.5
Q 32.277734375 34.7373046875 31.2 38.95 30 43.25 28.25 47.15 26.4 51 26.05 55.05 25.75 59.05 27.15 63.1 28.45 67.15 33.05 68.2 37.6 69.25 41.55 68.25 41.93984375 68.178515625 42.3 68.1 44.7298828125 67.5859375 45.95 66.55 49.629296875 63.1279296875 47.2 58.65 43.442578125 58.7732421875 41.45 59.55 43.442578125 58.7732421875 47.2 58.65 49.903125 58.8416015625 49.8 56.4 49.795703125 56.2607421875 49.75 56.1 49.7712890625 56.0673828125 49.75 56 49.744921875 55.784375 49.7 55.55 49.4064453125 54.1763671875 47.3 53.6 41.4359375 53.2990234375 37.9 55.15 41.4359375 53.2990234375 47.3 53.6 47.9173828125 53.64453125 48.55 53.7 49.9291015625 53.7228515625 50.05 53.2 50.0998046875 53.145703125 50.1 53.05 50.101171875 52.66875 50.05 52.3 50.0474609375 51.7462890625 49.95 51.35 49.798828125 50.7970703125 49.45 50.15 48.9 48.95 47.45 48.75 40 47.7 33.35 51.65 40 47.7 47.45 48.75 48 48.5 48.35 48.1 48.95 47.4 48.55 45.95 48.35 45.3 47.8 44.75 Z"/>
</g>

<path id="Layer1_0_1_STROKES" stroke="#2F2F2F" stroke-width="3" stroke-linejoin="round" stroke-linecap="round" fill="none" d="
M 29.75 37.05
Q 36.15 39.25 42.45 37.05"/>

<path id="Layer0_0_1_STROKES" stroke="#2F2F2F" stroke-width="2" stroke-linejoin="round" stroke-linecap="round" fill="none" d="
M 39 40.15
Q 38.45 42.25 37.05 44.55 42.75 42.55 45.5 43.5 47 44 47.8 44.75 50.611328125 44.8994140625 52.325 48 54.0396484375 51.091796875 49.775 56.125 49.795703125 56.2607421875 49.8 56.4 49.903125 58.8416015625 47.2 58.675 49.629296875 63.1279296875 45.95 66.55 44.7298828125 67.5859375 42.325 68.1 41.93984375 68.178515625 41.55 68.25 37.6 69.25 33.05 68.2 28.45 67.15 27.15 63.1 25.75 59.05 26.05 55.05 26.4 51 28.25 47.15 30 43.25 31.2 38.95 32.277734375 34.7373046875 32.675 33.5
L 32.7 33.5
Q 34.0482421875 29.799609375 36.65 29.85 39.2625 30.1640625 39.6 33.5 39.8326171875 34.5958984375 39.75 36.25 39.75 38.1 39 40.15 Z
M 47.8 44.75
Q 48.35 45.3 48.55 45.95 48.95 47.4 48.35 48.1 48 48.5 47.45 48.75 48.9 48.95 49.45 50.15 49.798828125 50.7970703125 49.95 51.375 50.0474609375 51.7462890625 50.075 52.325 50.101171875 52.66875 50.1 53.075 50.0998046875 53.145703125 50.075 53.2
M 49.775 56
Q 49.7712890625 56.0673828125 49.775 56.125
M 37.05 44.55
Q 34.15 45.3 31.9 46.6
M 50.075 53.2
Q 49.9291015625 53.7228515625 48.55 53.7 47.9173828125 53.64453125 47.3 53.6 49.4064453125 54.1763671875 49.7 55.55 49.744921875 55.784375 49.775 56
M 47.2 58.675
Q 43.442578125 58.7732421875 41.45 59.55
M 47.3 53.6
Q 41.4359375 53.2990234375 37.9 55.15
M 47.45 48.75
Q 40 47.7 33.35 51.65"/>
</defs>

<g id="_____1">
<g transform="matrix( 1.0000457763671875, 0, 0, 0.9990386962890625, 0.05,-2.35) ">
<use xlink:href="#Layer2_0_MEMBER_0_MEMBER_0_MEMBER_0_MEMBER_0_MEMBER_0_MEMBER_0_MEMBER_0_MEMBER_0_FILL"/>
</g>
</g>

<g transform="matrix( 1, 0, 0, 1, 0,0) ">
<use xlink:href="#Layer1_0_FILL"/>

<use xlink:href="#Layer1_0_1_STROKES"/>
</g>

<g id="Camada_1">
<g transform="matrix( 1, 0, 0, 1, 0,0) ">
<use xlink:href="#Layer0_0_FILL"/>

<use xlink:href="#Layer0_0_1_STROKES"/>
</g>
</g>
</svg>

<svg xmlns="http://www.w3.org/2000/svg" xmlns:xlink="http://www.w3.org/1999/xlink" preserveAspectRatio="none" viewBox="0 0 72 72"><defs><path id="a" fill="#FCC21B" d="M36 5.6q-22.2 0-30.95 20.5Q.25 37.35.25 52.45q0 5.8 10.45 9.9 10.5 4.1 25.3 4.1t25.25-4.1q10.45-4.1 10.45-9.9 0-15.1-4.8-26.35Q58.2 5.6 36 5.6z"/><path id="b" fill="#2F2F2F" d="M26.65 20.7q-1.45-1.7-3.5-1.65-2 .05-3.4 1.75-1.45 1.8-1.4 4.2.043 2.063 1.1 3.55.136.182.25.3 3.74-.246 7.45-.4.128-.144.2-.3.839-1.447.8-3.3-.05-2.5-1.5-4.15m25.75 0q-1.45-1.7-3.5-1.65-2.05 0-3.4 1.8-1.45 1.7-1.4 4.1.036 1.766.8 3.15.087.156.15.3 3.813.152 7.55.4.117-.122.2-.3 1.1-1.551 1.1-3.65-.05-2.45-1.5-4.15z"/><path id="d" fill="#FCC21B" d="M47.8 44.75q.55.55.75 1.2.4 1.45-.2 2.15-.35.4-.9.65 1.45.2 2 1.4.349.647.5 1.2.097.396.1.95.051.369.05.75 0 .096-.05.15l-.3 2.8q.021.067 0 .1 4.29-5.008 2.55-8.1-1.689-3.1-4.5-3.25m0 0Q47 44 45.5 43.5q-2.75-.95-8.45 1.05-2.9.75-5.15 2.05 2.25-1.3 5.15-2.05 1.4-2.3 1.95-4.4.75-2.05.75-3.9.083-1.654-.15-2.75-.337-3.336-2.95-3.65-2.602-.05-3.95 3.65h-.05q-.372 1.237-1.45 5.45-1.2 4.3-2.95 8.2-1.85 3.85-2.2 7.9-.3 4 1.1 8.05 1.3 4.05 5.9 5.1 4.55 1.05 8.5.05.39-.071.75-.15 2.43-.514 3.65-1.55 3.68-3.422 1.25-7.9-3.757.123-5.75.9 1.993-.777 5.75-.9 2.703.192 2.6-2.25-.004-.14-.05-.3.021-.033 0-.1-.005-.216-.05-.45-.294-1.374-2.4-1.95-5.864-.301-9.4 1.55 3.536-1.851 9.4-1.55.617.045 1.25.1 1.38.023 1.5-.5.05-.054.05-.15.001-.381-.05-.75-.003-.554-.1-.95-.151-.553-.5-1.2-.55-1.2-2-1.4-7.45-1.05-14.1 2.9 6.65-3.95 14.1-2.9.55-.25.9-.65.6-.7.2-2.15-.2-.65-.75-1.2z"/><path id="c" fill="none" stroke="#2F2F2F" stroke-linecap="round" stroke-linejoin="round" stroke-width="3" d="M29.75 37.05q6.4 2.2 12.7 0"/><path id="e" fill="none" stroke="#2F2F2F" stroke-linecap="round" stroke-linejoin="round" stroke-width="2" d="M39 40.15q-.55 2.1-1.95 4.4 5.7-2 8.45-1.05 1.5.5 2.3 1.25 2.811.15 4.525 3.25 1.715 3.092-2.55 8.125.02.136.025.275.103 2.442-2.6 2.275 2.43 4.453-1.25 7.875-1.22 1.036-3.625 1.55-.385.079-.775.15-3.95 1-8.5-.05-4.6-1.05-5.9-5.1-1.4-4.05-1.1-8.05.35-4.05 2.2-7.9 1.75-3.9 2.95-8.2 1.078-4.213 1.475-5.45h.025q1.348-3.7 3.95-3.65 2.613.314 2.95 3.65.233 1.096.15 2.75 0 1.85-.75 3.9zm8.8 4.6q.55.55.75 1.2.4 1.45-.2 2.15-.35.4-.9.65 1.45.2 2 1.4.349.647.5 1.225.097.371.125.95.026.344.025.75 0 .07-.025.125m-.3 2.8q-.004.067 0 .125M37.05 44.55q-2.9.75-5.15 2.05m18.175 6.6q-.146.523-1.525.5-.633-.055-1.25-.1 2.106.576 2.4 1.95.045.234.075.45M47.2 58.675q-3.757.098-5.75.875m5.85-5.95q-5.864-.301-9.4 1.55m9.55-6.4q-7.45-1.05-14.1 2.9"/></defs><use transform="matrix(1.00005 0 0 .99904 .05 -2.35)" xlink:href="#a"/><g><use xlink:href="#b"/><use xlink:href="#c"/></g><g><use xlink:href="#d"/><use xlink:href="#e"/></g></svg>
